X:1
T: Young Tim Murphy
C:
R:Jig
Q:180
K:D
M:6/8
L:1/16
FG|:A2F2D2 D2F2A2|B2c2d2 B4A2|B2c2d2 A2G2F2|G2F2G2 E2F2G2|
A2F2D2 D2F2A2|B2c2d2 B4A2|B2c2d2 F4E2|1F2D2D2 D4FG:|2F2D2D2 D4e2|
|:f2e2f2 d2B2A2|B2d2d2 d4e2|f2e2f2 d2e2f2|g2f2g2 e4a2|
f2e2d2 B4d2|A4d2 F4A2|B2d2d2 F4E2|1F2D2D2 D4e2:|2F2D2D2 D4||
